frontend/public/svg/logos/apple.svg

<svg width="163" height="169" viewBox="0 0 163 169" fill="none" xmlns="http://www.w3.org/2000/svg">
<g clip-path="url(#clip0)">
<path d="M156.444 58.74C153.973 60.203 152.038 61.4868 149.986 62.5396C142.737 66.2292 136.656 71.8597 132.419 78.8037C129.25 83.8398 127.864 89.7954 128.486 95.7143C129.347 105.117 134.271 111.504 143.129 114.822C147.613 116.501 152.186 117.976 156.576 119.868C162.322 122.343 163.76 125.658 161.259 131.297C159.256 135.905 156.856 140.331 154.088 144.524C150.81 149.399 147.308 154.25 143.201 158.418C132.732 169.041 120.612 169.943 108.301 161.481C105.605 159.627 103.068 157.532 100.527 155.465C97.5388 153.036 94.3188 152.346 90.7647 153.978C87.7981 155.34 84.8445 156.739 81.9409 158.23C77.6747 160.423 73.5116 162.833 69.1981 164.932C62.8318 168.029 56.1608 168.148 49.3644 166.544C35.7435 163.328 25.2501 155.511 17.1305 144.383C9.69091 134.334 4.46352 122.823 1.79247 110.609C-2.12915 92.3893 1.0049 75.3685 11.4991 59.9524C20.2081 47.1617 32.6088 40.1899 48.0452 40.2417C58.0294 40.2752 68.0633 41.7388 77.974 43.2235C86.1644 44.4502 94.0372 44.3341 101.854 41.5073C105.958 40.0226 110.081 38.5335 114.294 37.417C121.735 35.3941 129.636 35.8949 136.762 38.8409C143.887 41.787 149.834 47.0119 153.674 53.6985C154.443 55.0066 155.139 56.3568 156.444 58.74ZM149.565 128.978C144.774 127.186 140.574 125.939 136.651 124.092C123.017 117.667 115.804 104.079 118 89.1581C120.003 75.5483 128.411 66.4738 139.484 59.3749C141.11 58.3326 142.839 57.4502 144.866 56.2963C137.439 48.2063 128.821 44.7489 118.276 47.2941C114.684 48.2292 111.17 49.4398 107.763 50.9152C96.9166 55.3967 85.9675 56.0918 74.4173 53.6377C65.8731 51.8746 57.1844 50.9052 48.462 50.7419C35.6772 50.4406 25.884 56.4999 18.98 67.1938C13.5845 75.4919 10.71 85.1761 10.7043 95.0743C10.5658 114.371 17.9896 130.749 30.7436 144.854C35.0328 149.596 40.4088 152.97 46.3742 155.389C54.0947 158.519 61.6203 158.776 68.9848 154.343C71.788 152.656 74.6372 151.034 77.5441 149.535C80.6125 147.879 83.7675 146.389 86.9954 145.072C94.0891 142.336 100.674 143.324 106.64 148.208C109.291 150.482 112.087 152.579 115.011 154.489C122.089 158.877 128.122 158.431 134.074 152.667C140.903 145.994 146.19 137.91 149.565 128.978Z" fill="black"/>
<path d="M114.283 10.6348C114.09 20.5547 109.806 28.2983 101.352 33.4407C97.4666 35.8035 93.2043 37.5899 89.007 39.3922C85.4628 40.9136 81.7256 40.7576 78.125 39.4797C74.5401 38.2077 73.6947 36.3206 74.4462 32.3911C76.5465 21.4 82.9326 13.3673 92.1864 7.63354C96.2156 5.13948 100.941 3.79372 105.191 1.61468C109.863 -0.780301 113.827 2.22125 114.268 7.36628C114.361 8.44989 114.283 9.54532 114.283 10.6348ZM81.6298 30.4897C96.6928 28.5443 105.324 20.6971 104.615 9.90026C94.2144 13.5443 86.3902 19.6562 81.6298 30.4897Z" fill="black"/>
</g>
<defs>
<clipPath id="clip0">
<rect width="162.772" height="167.366" fill="white" transform="translate(0.0693359 0.734375)"/>
</clipPath>
</defs>
</svg>

<svg xmlns="http://www.w3.org/2000/svg" width="163" height="169" fill="none" viewBox="0 0 163 169"><g fill="#000" clip-path="url(#a)"><path d="M156.444 58.74c-2.471 1.463-4.406 2.747-6.458 3.8a43.9 43.9 0 0 0-17.567 16.264 26.54 26.54 0 0 0-3.933 16.91c.861 9.403 5.785 15.79 14.643 19.108 4.484 1.679 9.057 3.154 13.447 5.046 5.746 2.475 7.184 5.79 4.683 11.429a87 87 0 0 1-7.171 13.227c-3.278 4.875-6.78 9.726-10.887 13.894-10.469 10.623-22.589 11.525-34.9 3.063-2.696-1.854-5.233-3.949-7.774-6.016-2.988-2.429-6.208-3.119-9.762-1.487-2.967 1.362-5.92 2.761-8.824 4.252-4.266 2.193-8.43 4.603-12.743 6.702-6.366 3.097-13.037 3.216-19.834 1.612-13.62-3.216-24.114-11.033-32.233-22.161a88.6 88.6 0 0 1-15.339-33.774c-3.921-18.22-.787-35.24 9.707-50.657 8.71-12.79 21.11-19.762 36.546-19.71 9.984.033 20.018 1.497 29.929 2.982 8.19 1.226 16.063 1.11 23.88-1.717 4.104-1.484 8.227-2.974 12.44-4.09a34.866 34.866 0 0 1 39.38 16.282c.769 1.308 1.465 2.658 2.77 5.041m-6.879 70.238c-4.791-1.792-8.991-3.039-12.914-4.886-13.634-6.425-20.847-20.013-18.651-34.934 2.003-13.61 10.411-22.684 21.484-29.783 1.626-1.042 3.355-1.925 5.382-3.079-7.427-8.09-16.045-11.547-26.59-9.002a72 72 0 0 0-10.513 3.621c-10.846 4.482-21.796 5.177-33.346 2.723a141.5 141.5 0 0 0-25.955-2.896C35.677 50.44 25.884 56.5 18.98 67.194a51.2 51.2 0 0 0-8.276 27.88c-.138 19.297 7.286 35.675 20.04 49.78 4.289 4.742 9.665 8.116 15.63 10.535 7.72 3.13 15.246 3.387 22.61-1.046 2.804-1.687 5.653-3.309 8.56-4.808a97 97 0 0 1 9.451-4.463c7.094-2.736 13.679-1.748 19.645 3.136a80 80 0 0 0 8.371 6.281c7.078 4.388 13.111 3.942 19.063-1.822a65.5 65.5 0 0 0 15.491-23.689"/><path d="M114.283 10.635c-.193 9.92-4.477 17.663-12.931 22.806-3.885 2.362-8.148 4.149-12.345 5.951-3.544 1.522-7.281 1.366-10.882.088-3.585-1.272-4.43-3.16-3.679-7.089 2.1-10.991 8.487-19.024 17.74-24.757 4.03-2.495 8.755-3.84 13.005-6.02 4.672-2.394 8.636.607 9.077 5.752.093 1.084.015 2.18.015 3.269M81.63 30.49c15.063-1.946 23.694-9.793 22.985-20.59-10.4 3.644-18.225 9.756-22.985 20.59"/></g><defs><clipPath id="a"><path fill="#fff" d="M.07.734h162.77V168.1H.07z"/></clipPath></defs></svg>
